;FLAVOR:Marlin
;TIME:7648
;Filament used: 3.4488m
;Layer height: 0.2
;MINX:67.984
;MINY:70.449
;MINZ:0.2
;MAXX:167.044
;MAXY:144.774
;MAXZ:6.2
;TARGET_MACHINE.NAME:Creality Ender-3
;POSTPROCESSED
;Generated with Cura_SteamEngine 5.5.0
M140 S60
M105
M190 S60
M104 S230
M105
M109 S230
M82 ;absolute extrusion mode
; Ender 3 Custom Start G-code
G92 E0 ; Reset Extruder
G28 ; Home all axes
G1 Z2.0 F3000 ; Move Z Axis up little to prevent scratching of Heat Bed
G1 X0.1 Y20 Z0.3 F5000.0 ; Move to start position
G1 X0.1 Y200.0 Z0.3 F1500.0 E15 ; Draw the first line
G1 X0.4 Y200.0 Z0.3 F5000.0 ; Move to side a little
G1 X0.4 Y20 Z0.3 F1500.0 E30 ; Draw the second line
G92 E0 ; Reset Extruder
G1 Z2.0 F3000 ; Move Z Axis up little to prevent scratching of Heat Bed
G1 X5 Y20 Z0.3 F5000.0 ; Move over to prevent blob squish
G92 E0
G92 E0
G1 F6000 E-10
;LAYER_COUNT:30
;LAYER:0
M107
G1 F300 Z0.4
G0 F6000 X78.535 Y73.325 Z0.4
;TYPE:SKIRT
G1 F300 Z0.2
G1 F6000 E0
G1 F1200 X79.545 Y72.386 E0.04587
G1 X80.966 Y71.437 E0.1027
G1 X82.355 Y70.844 E0.15293
G1 X83.878 Y70.449 E0.20526
G1 X86.489 Y70.455 E0.29211
G1 X88.35 Y70.992 E0.35653
G1 X89.2 Y71.376 E0.38755
G1 X90.814 Y72.456 E0.45214
G1 X91.613 Y73.216 E0.48882
G1 X92.844 Y74.898 E0.55815
G1 X93.259 Y75.737 E0.58928
G1 X93.841 Y77.676 E0.65661
G1 X93.964 Y78.654 E0.6894
G1 X94.782 Y86.559 E0.95372
G1 X95.367 Y86.636 E0.97335
G1 X96.37 Y86.918 E1.008
G1 X96.928 Y87.161 E1.02824
G1 X96.942 Y77.422 E1.35216
G1 X97.033 Y76.696 E1.3765
G1 X97.199 Y76.063 E1.39827
G1 X97.631 Y75.057 E1.43468
G1 X98.212 Y74.169 E1.46997
G1 X98.502 Y73.836 E1.48466
G1 X99.616 Y72.918 E1.53267
G1 X100.148 Y72.622 E1.55292
G1 X101.049 Y72.25 E1.58534
G1 X102.047 Y72.053 E1.61918
G1 X102.428 Y72.02 E1.6319
G1 X114.959 Y72.018 E2.04868
G1 X115.433 Y72.058 E2.0645
G1 X116.767 Y72.386 E2.11019
G1 X117.221 Y72.584 E2.12666
G1 X117.768 Y72.916 E2.14795
G1 X118.49 Y72.511 E2.17548
G1 X118.989 Y72.324 E2.1932
G1 X119.895 Y72.113 E2.22414
G1 X120.719 Y72.038 E2.25166
G1 X133.023 Y72.046 E2.6609
G1 X133.734 Y72.127 E2.6847
G1 X134.747 Y72.38 E2.71943
G1 X135.75 Y72.861 E2.75642
G1 X136.238 Y73.192 E2.77604
G1 X137.14 Y74.022 E2.8168
G1 X137.559 Y74.569 E2.83972
G1 X137.986 Y75.305 E2.86802
G1 X138.356 Y76.276 E2.90258
G1 X138.532 Y77.154 E2.93237
G1 X138.578 Y77.835 E2.95507
G1 X138.572 Y89.17 E3.33207
G1 X140.256 Y88.75 E3.3898
G1 X140.446 Y88.728 E3.39616
G1 X141.054 Y80.904 E3.65717
G1 X141.307 Y79.302 E3.71111
G1 X141.767 Y77.937 E3.75902
G1 X142.304 Y76.9 E3.79786
G1 X143.278 Y75.546 E3.85334
G1 X144.288 Y74.607 E3.89921
G1 X145.709 Y73.658 E3.95604
G1 X147.098 Y73.065 E4.00627
G1 X148.621 Y72.67 E4.0586
G1 X151.23 Y72.676 E4.14538
G1 X153.102 Y73.219 E4.21021
G1 X154.159 Y73.718 E4.24909
G1 X155.417 Y74.543 E4.29912
G1 X156.735 Y75.868 E4.36128
G1 X157.34 Y76.708 E4.39571
G1 X158.164 Y78.339 E4.45649
G1 X158.571 Y79.823 E4.50767
G1 X158.707 Y80.875 E4.54295
G1 X159.525 Y88.774 E4.80708
G1 X159.92 Y88.823 E4.82032
G1 X161.254 Y89.192 E4.86635
G1 X162.661 Y89.825 E4.91767
G1 X164.107 Y90.894 E4.97748
G1 X164.818 Y91.604 E5.0109
G1 X165.979 Y93.243 E5.0777
G1 X166.459 Y94.292 E5.11607
G1 X166.905 Y95.782 E5.1678
G1 X167.044 Y97.619 E5.22907
G1 X166.927 Y98.889 E5.27149
G1 X166.484 Y100.563 E5.32909
G1 X165.828 Y101.912 E5.37898
G1 X165.033 Y103.075 E5.42583
G1 X163.734 Y104.331 E5.48593
G1 X162.861 Y104.943 E5.52139
G1 X161.68 Y105.519 E5.5651
G1 X161.662 Y124.834 E6.20752
G1 X161.571 Y125.631 E6.2342
G1 X161.45 Y126.103 E6.2504
G1 X162.19 Y126.461 E6.27774
G1 X162.691 Y126.763 E6.2972
G1 X163.72 Y127.551 E6.34031
G1 X164.385 Y128.201 E6.37124
G1 X164.921 Y128.846 E6.39913
G1 X165.483 Y129.687 E6.43277
G1 X165.932 Y130.554 E6.46525
G1 X166.242 Y131.347 E6.49357
G1 X166.524 Y132.397 E6.52973
G1 X166.647 Y133.19 E6.55642
G1 X166.697 Y134.199 E6.59002
G1 X166.627 Y135.291 E6.62641
G1 X166.523 Y135.915 E6.64745
G1 X166.186 Y137.106 E6.68862
G1 X165.847 Y137.925 E6.7181
G1 X165.35 Y138.837 E6.75265
G1 X164.983 Y139.372 E6.77423
G1 X164.265 Y140.222 E6.81123
G1 X163.481 Y140.953 E6.84689
G1 X162.89 Y141.398 E6.87149
G1 X161.884 Y141.995 E6.9104
G1 X161.25 Y142.285 E6.93359
G1 X160.094 Y142.667 E6.97408
G1 X159.128 Y142.864 E7.00687
G1 X158.589 Y142.923 E7.02491
G1 X157.214 Y142.923 E7.07064
G1 X156.676 Y142.864 E7.08864
G1 X155.536 Y142.619 E7.12742
G1 X154.466 Y142.251 E7.16506
G1 X153.935 Y142.004 E7.18453
G1 X152.788 Y141.308 E7.22916
G1 X152.116 Y140.789 E7.2574
G1 X151.78 Y141.278 E7.27713
G1 X151.059 Y142.115 E7.31388
G1 X150.284 Y142.826 E7.34886
G1 X149.603 Y143.329 E7.37702
G1 X148.816 Y143.795 E7.40744
G1 X147.916 Y144.203 E7.4403
G1 X147.109 Y144.471 E7.46858
G1 X145.965 Y144.715 E7.50749
G1 X145.427 Y144.774 E7.52549
G1 X144.052 Y144.774 E7.57122
G1 X143.514 Y144.715 E7.58923
G1 X142.419 Y144.482 E7.62646
G1 X141.29 Y144.094 E7.66617
G1 X140.681 Y143.806 E7.68857
G1 X139.625 Y143.158 E7.72978
G1 X139.144 Y142.788 E7.74996
G1 X138.214 Y141.899 E7.79276
G1 X137.686 Y141.259 E7.82035
G1 X137.213 Y140.557 E7.84851
G1 X136.722 Y139.622 E7.88363
G1 X136.368 Y138.734 E7.91543
G1 X135.952 Y139.115 E7.93419
G1 X134.4 Y140.184 E7.99687
G1 X133.279 Y140.753 E8.03868
G1 X131.413 Y141.397 E8.10434
G1 X130.104 Y141.653 E8.1487
G1 X128.523 Y141.766 E8.20142
G1 X101.123 Y141.748 E9.11275
G1 X100.38 Y141.666 E9.13761
G1 X99.313 Y141.39 E9.17426
G1 X98.222 Y140.909 E9.21392
G1 X97.528 Y140.468 E9.24127
G1 X96.483 Y139.529 E9.288
G1 X95.84 Y138.711 E9.3226
G1 X95.413 Y137.961 E9.35131
G1 X95.011 Y136.933 E9.38802
G1 X94.827 Y136.086 E9.41685
G1 X94.616 Y136.61 E9.43564
G1 X94.001 Y137.755 E9.47887
G1 X93.595 Y138.341 E9.50258
G1 X92.833 Y139.227 E9.54144
G1 X92.406 Y139.63 E9.56097
G1 X91.458 Y140.358 E9.60073
G1 X90.53 Y140.902 E9.63651
G1 X89.859 Y141.205 E9.66099
G1 X88.903 Y141.523 E9.6945
G1 X87.8 Y141.756 E9.732
G1 X87.262 Y141.815 E9.75
G1 X85.886 Y141.815 E9.79577
G1 X85.348 Y141.756 E9.81377
G1 X84.203 Y141.51 E9.85272
G1 X83.095 Y141.121 E9.89178
G1 X82.284 Y140.728 E9.92175
G1 X81.785 Y140.427 E9.94113
G1 X80.787 Y139.663 E9.98294
G1 X80.025 Y138.916 E10.01843
G1 X79.582 Y138.383 E10.04148
G1 X78.988 Y137.493 E10.07707
G1 X78.562 Y136.677 E10.10768
G1 X78.238 Y135.858 E10.13698
G1 X77.979 Y134.921 E10.16931
G1 X77.818 Y133.907 E10.20346
G1 X77.777 Y133.083 E10.2309
G1 X77.848 Y131.906 E10.27012
G1 X77.943 Y131.326 E10.28967
G1 X78.303 Y130.046 E10.33389
G1 X78.59 Y129.348 E10.35899
G1 X78.833 Y128.891 E10.37621
G1 X77.871 Y128.634 E10.40933
G1 X76.887 Y128.194 E10.44518
G1 X75.957 Y127.588 E10.4821
G1 X75.267 Y126.967 E10.51297
G1 X74.547 Y126.094 E10.55061
G1 X74.02 Y125.193 E10.58533
G1 X73.702 Y124.411 E10.6134
G1 X73.392 Y123.077 E10.65896
G1 X73.346 Y122.532 E10.67715
G1 X73.337 Y103.329 E11.31584
G1 X71.904 Y102.563 E11.36988
G1 X71.005 Y101.88 E11.40744
G1 X69.995 Y100.842 E11.45561
G1 X69.039 Y99.482 E11.5109
G1 X68.384 Y97.894 E11.56803
G1 X68.08 Y96.591 E11.61253
G1 X67.984 Y94.761 E11.67348
G1 X68.149 Y93.477 E11.71654
G1 X68.569 Y92 E11.76761
G1 X69.248 Y90.672 E11.81722
G1 X70.02 Y89.596 E11.86127
G1 X71.199 Y88.398 E11.91717
G1 X72.67 Y87.454 E11.97531
G1 X73.715 Y86.991 E12.01332
G1 X75.705 Y86.485 E12.08162
G1 X76.316 Y78.626 E12.3438
G1 X76.515 Y77.28 E12.38905
G1 X77.024 Y75.716 E12.44375
G1 X77.561 Y74.679 E12.4826
G1 X78.535 Y73.325 E12.53807
G0 F6000 X78.839 Y73.588
G1 F1200 X79.817 Y72.679 E12.58248
G1 X81.158 Y71.79 E12.63599
G1 X82.455 Y71.231 E12.68297
G1 X83.927 Y70.849 E12.73355
G1 X86.431 Y70.855 E12.81683
G1 X88.185 Y71.357 E12.87751
G1 X89.035 Y71.741 E12.90853
G1 X90.538 Y72.746 E12.96867
G1 X91.337 Y73.506 E13.00535
G1 X92.485 Y75.075 E13.07001
G1 X92.9 Y75.914 E13.10114
G1 X93.444 Y77.726 E13.16407
G1 X93.566 Y78.695 E13.19655
G1 X94.417 Y86.917 E13.47148
G1 X95.26 Y87.022 E13.49973
G1 X96.21 Y87.285 E13.53252
G1 X97.327 Y87.771 E13.57303
G1 X97.339 Y77.47 E13.91564
G1 X97.421 Y76.795 E13.93826
G1 X97.567 Y76.221 E13.95796
G1 X97.999 Y75.215 E13.99437
G1 X98.514 Y74.432 E14.02554
G1 X98.804 Y74.099 E14.04023
G1 X99.812 Y73.267 E14.0837
G1 X100.301 Y72.992 E14.10236
G1 X101.169 Y72.634 E14.13359
G1 X102.082 Y72.452 E14.16456
G1 X102.463 Y72.419 E14.17728
G1 X114.925 Y72.417 E14.59176
G1 X115.399 Y72.457 E14.60758
G1 X116.61 Y72.754 E14.64906
G1 X117.013 Y72.926 E14.66363
G1 X117.761 Y73.38 E14.69273
G1 X118.63 Y72.886 E14.72598
G1 X119.129 Y72.699 E14.7437
G1 X119.932 Y72.511 E14.77113
G1 X120.719 Y72.438 E14.79742
G1 X132.98 Y72.444 E15.20522
G1 X133.637 Y72.515 E15.2272
G1 X134.611 Y72.758 E15.26059
G1 X135.525 Y73.192 E15.29424
G1 X136.013 Y73.523 E15.31386
G1 X136.824 Y74.267 E15.35046
G1 X137.213 Y74.77 E15.37161
G1 X137.64 Y75.506 E15.39991
G1 X137.964 Y76.356 E15.43017
G1 X138.133 Y77.181 E15.45818
G1 X138.178 Y77.835 E15.47998
G1 X138.172 Y89.774 E15.87707
G1 X138.657 Y89.561 E15.89469
G1 X140.353 Y89.138 E15.95283
G1 X140.819 Y89.098 E15.96838
G1 X141.453 Y80.935 E16.2407
G1 X141.686 Y79.429 E16.29139
G1 X142.123 Y78.12 E16.33729
G1 X142.629 Y77.134 E16.37415
G1 X143.582 Y75.809 E16.42844
G1 X144.56 Y74.9 E16.47284
G1 X145.901 Y74.011 E16.52636
G1 X147.198 Y73.452 E16.57333
G1 X148.67 Y73.07 E16.62391
G1 X151.175 Y73.076 E16.70723
G1 X152.933 Y73.581 E16.76806
G1 X153.94 Y74.052 E16.80504
G1 X155.16 Y74.852 E16.85356
G1 X156.41 Y76.102 E16.91236
G1 X157.015 Y76.942 E16.94679
G1 X157.79 Y78.487 E17.00428
G1 X158.174 Y79.874 E17.05215
G1 X158.309 Y80.916 E17.08709
G1 X159.16 Y89.134 E17.36189
G1 X159.813 Y89.209 E17.38375
G1 X161.147 Y89.578 E17.42978
G1 X162.457 Y90.172 E17.47762
G1 X163.824 Y91.177 E17.53406
G1 X164.535 Y91.887 E17.56748
G1 X165.63 Y93.442 E17.63073
G1 X166.095 Y94.458 E17.6679
G1 X166.509 Y95.853 E17.71629
G1 X166.645 Y97.649 E17.7762
G1 X166.54 Y98.787 E17.81421
G1 X166.107 Y100.425 E17.87056
G1 X165.498 Y101.686 E17.91714
G1 X164.727 Y102.815 E17.96261
G1 X163.504 Y104.003 E18.01932
G1 X162.631 Y104.615 E18.05478
G1 X161.28 Y105.268 E18.10469
G1 X161.264 Y124.791 E18.75402
G1 X161.183 Y125.532 E18.77882
G1 X160.975 Y126.346 E18.80676
G1 X161.205 Y126.429 E18.81489
G1 X161.983 Y126.804 E18.84362
G1 X162.484 Y127.106 E18.86308
G1 X163.441 Y127.838 E18.90315
G1 X164.078 Y128.458 E18.93271
G1 X164.588 Y129.068 E18.95916
G1 X165.15 Y129.909 E18.9928
G1 X165.559 Y130.7 E19.02242
G1 X165.869 Y131.493 E19.05074
G1 X166.129 Y132.459 E19.08401
G1 X166.247 Y133.21 E19.1093
G1 X166.297 Y134.219 E19.1429
G1 X166.232 Y135.225 E19.17643
G1 X166.128 Y135.849 E19.19747
G1 X165.816 Y136.953 E19.23562
G1 X165.477 Y137.772 E19.26511
G1 X165.019 Y138.612 E19.29693
G1 X164.677 Y139.114 E19.31713
G1 X163.959 Y139.964 E19.35414
G1 X163.24 Y140.633 E19.3868
G1 X162.649 Y141.078 E19.41141
G1 X161.716 Y141.632 E19.4475
G1 X161.124 Y141.905 E19.46918
G1 X160.013 Y142.275 E19.50813
G1 X159.084 Y142.466 E19.53967
G1 X158.545 Y142.525 E19.55771
G1 X157.258 Y142.525 E19.60051
G1 X156.72 Y142.466 E19.61852
G1 X155.621 Y142.228 E19.65592
G1 X154.635 Y141.888 E19.6906
G1 X154.104 Y141.641 E19.71008
G1 X153.032 Y140.991 E19.75178
G1 X152.552 Y140.622 E19.77192
G1 X152.035 Y140.133 E19.79559
G1 X151.855 Y140.462 E19.80806
G1 X151.45 Y141.051 E19.83183
G1 X150.788 Y141.821 E19.86561
G1 X150.046 Y142.504 E19.89915
G1 X149.365 Y143.007 E19.92731
G1 X148.65 Y143.431 E19.95496
G1 X147.79 Y143.823 E19.98639
G1 X146.983 Y144.091 E20.01467
G1 X145.921 Y144.317 E20.05079
G1 X145.383 Y144.376 E20.06879
G1 X144.096 Y144.376 E20.1116
G1 X143.558 Y144.317 E20.1296
G1 X142.503 Y144.091 E20.16548
G1 X141.461 Y143.732 E20.20214
G1 X140.852 Y143.444 E20.22454
G1 X139.869 Y142.841 E20.2629
G1 X139.388 Y142.471 E20.28308
G1 X138.522 Y141.644 E20.32291
G1 X138.018 Y141.035 E20.3492
G1 X137.545 Y140.333 E20.37736
G1 X137.094 Y139.474 E20.40963
G1 X136.797 Y138.729 E20.4363
G1 X136.593 Y137.976 E20.46225
G1 X135.724 Y138.786 E20.50176
G1 X134.219 Y139.827 E20.56263
G1 X133.098 Y140.396 E20.60444
G1 X131.336 Y141.004 E20.66643
G1 X130.027 Y141.26 E20.7108
G1 X128.523 Y141.366 E20.76094
G1 X101.167 Y141.35 E21.67081
G1 X100.424 Y141.268 E21.69567
G1 X99.473 Y141.024 E21.72832
G1 X98.437 Y140.571 E21.76593
G1 X97.743 Y140.13 E21.79328
G1 X96.751 Y139.232 E21.83779
G1 X96.187 Y138.511 E21.86823
G1 X95.786 Y137.815 E21.89495
G1 X95.384 Y136.787 E21.93166
G1 X95.163 Y135.743 E21.96715
G1 X95.109 Y134.965 E21.99309
G1 X95.12 Y126.234 E22.28349
G1 X94.489 Y126.914 E22.31434
G1 X93.634 Y127.586 E22.35051
G1 X93.166 Y127.854 E22.36845
G1 X93.375 Y128.11 E22.37944
G1 X93.69 Y128.577 E22.39818
G1 X94.25 Y129.634 E22.43796
G1 X94.528 Y130.345 E22.46335
G1 X94.81 Y131.405 E22.49983
G1 X94.93 Y132.194 E22.52638
G1 X94.971 Y133.019 E22.55385
G1 X94.905 Y134.112 E22.59027
G1 X94.81 Y134.691 E22.60979
G1 X94.48 Y135.877 E22.65073
G1 X94.245 Y136.46 E22.67164
G1 X93.672 Y137.527 E22.71192
G1 X93.266 Y138.113 E22.73563
G1 X92.558 Y138.936 E22.77174
G1 X92.131 Y139.339 E22.79127
G1 X91.215 Y140.04 E22.82963
G1 X90.365 Y140.537 E22.86238
G1 X89.694 Y140.84 E22.88687
G1 X88.82 Y141.132 E22.91752
G1 X87.756 Y141.358 E22.9537
G1 X87.218 Y141.417 E22.9717
G1 X85.93 Y141.417 E23.01454
G1 X85.392 Y141.358 E23.03254
G1 X84.288 Y141.119 E23.07011
G1 X83.269 Y140.761 E23.10603
G1 X82.491 Y140.385 E23.13477
G1 X81.992 Y140.084 E23.15415
G1 X81.067 Y139.377 E23.19288
G1 X80.333 Y138.66 E23.227
G1 X79.89 Y138.127 E23.25005
G1 X79.343 Y137.308 E23.28281
G1 X78.917 Y136.492 E23.31343
G1 X78.624 Y135.751 E23.33993
G1 X78.365 Y134.814 E23.37226
G1 X78.218 Y133.887 E23.40348
G1 X78.177 Y133.063 E23.43092
G1 X78.243 Y131.971 E23.46731
G1 X78.338 Y131.391 E23.48686
G1 X78.673 Y130.198 E23.52807
G1 X78.96 Y129.5 E23.55317
G1 X79.455 Y128.58 E23.58792
G1 X79.051 Y128.535 E23.60144
G1 X78.033 Y128.268 E23.63644
G1 X77.104 Y127.858 E23.67022
G1 X76.223 Y127.289 E23.7051
G1 X75.576 Y126.712 E23.73393
G1 X74.856 Y125.839 E23.77157
G1 X74.391 Y125.042 E23.80226
G1 X74.073 Y124.26 E23.83034
G1 X73.791 Y123.043 E23.87189
G1 X73.745 Y122.498 E23.89008
G1 X73.737 Y103.089 E24.53563
G1 X72.145 Y102.243 E24.59559
G1 X71.292 Y101.601 E24.6311
G1 X70.282 Y100.563 E24.67927
G1 X69.39 Y99.286 E24.73108
G1 X68.774 Y97.803 E24.78449
G1 X68.47 Y96.5 E24.82899
G1 X68.381 Y94.811 E24.88524
G1 X68.534 Y93.587 E24.92627
G1 X68.944 Y92.147 E24.97607
G1 X69.573 Y90.905 E25.02237
G1 X70.345 Y89.829 E25.06642
G1 X71.451 Y88.712 E25.1187
G1 X72.834 Y87.819 E25.17345
G1 X73.815 Y87.378 E25.20923
G1 X75.609 Y86.917 E25.27084
G1 X76.076 Y86.877 E25.28642
G1 X76.712 Y78.685 E25.55971
G1 X76.911 Y77.339 E25.60497
G1 X77.38 Y75.899 E25.65534
G1 X77.886 Y74.913 E25.6922
G1 X78.839 Y73.588 E25.74648
G0 F6000 X79.143 Y73.851
G1 F1200 X80.089 Y72.972 E25.78943
G1 X81.318 Y72.157 E25.83848
G1 X82.556 Y71.618 E25.88339
G1 X83.977 Y71.249 E25.93222
G1 X86.374 Y71.255 E26.01195
G1 X88.02 Y71.722 E26.06885
G1 X88.87 Y72.106 E26.09987
G1 X90.262 Y73.036 E26.15555
G1 X91.061 Y73.796 E26.19223
G1 X92.126 Y75.252 E26.25223
G1 X92.541 Y76.091 E26.28336
G1 X93.047 Y77.776 E26.34188
G1 X93.168 Y78.736 E26.37406
G1 X94.052 Y87.276 E26.65962
G1 X95.153 Y87.408 E26.6965
G1 X96.103 Y87.671 E26.72929
G1 X97.483 Y88.276 E26.7794
G1 X97.726 Y88.45 E26.78934
G1 X97.736 Y77.517 E27.15298
G1 X97.809 Y76.894 E27.17384
G1 X97.955 Y76.32 E27.19354
G1 X98.366 Y75.374 E27.22784
G1 X98.816 Y74.695 E27.25494
G1 X99.106 Y74.362 E27.26962
G1 X100.01 Y73.615 E27.30863
G1 X100.454 Y73.362 E27.32563
G1 X101.288 Y73.018 E27.35563
G1 X102.117 Y72.851 E27.38376
G1 X102.498 Y72.818 E27.39648
G1 X114.891 Y72.816 E27.80867
G1 X115.365 Y72.856 E27.82449
G1 X116.457 Y73.124 E27.86189
G1 X116.805 Y73.268 E27.87442
G1 X117.755 Y73.845 E27.91138
G1 X118.77 Y73.261 E27.95033
G1 X119.269 Y73.074 E27.96806
G1 X119.97 Y72.909 E27.99201
G1 X120.719 Y72.838 E28.01703
G1 X132.94 Y72.842 E28.4235
G1 X133.54 Y72.903 E28.44356
G1 X134.476 Y73.136 E28.47565
G1 X135.3 Y73.523 E28.50592
G1 X135.788 Y73.854 E28.52554
G1 X136.509 Y74.513 E28.55802
G1 X136.868 Y74.973 E28.57743
G1 X137.266 Y75.648 E28.60349
G1 X137.59 Y76.498 E28.63375
G1 X137.734 Y77.209 E28.65788
G1 X137.778 Y77.835 E28.67875
G1 X137.772 Y90.396 E29.09653
