;FLAVOR:Marlin
;TIME:10850
;Filament used: 4.12438m
;Layer height: 0.2
;MINX:52.332
;MINY:56.95
;MINZ:0.2
;MAXX:173.55
;MAXY:173.924
;MAXZ:15.2
;TARGET_MACHINE.NAME:Creality Ender-3
;POSTPROCESSED
;Generated with Cura_SteamEngine 5.5.0
M140 S60
M105
M190 S60
M104 S230
M105
M109 S230
M82 ;absolute extrusion mode
; Ender 3 Custom Start G-code
G92 E0 ; Reset Extruder
G28 ; Home all axes
G1 Z2.0 F3000 ; Move Z Axis up little to prevent scratching of Heat Bed
G1 X0.1 Y20 Z0.3 F5000.0 ; Move to start position
G1 X0.1 Y200.0 Z0.3 F1500.0 E15 ; Draw the first line
G1 X0.4 Y200.0 Z0.3 F5000.0 ; Move to side a little
G1 X0.4 Y20 Z0.3 F1500.0 E30 ; Draw the second line
G92 E0 ; Reset Extruder
G1 Z2.0 F3000 ; Move Z Axis up little to prevent scratching of Heat Bed
G1 X5 Y20 Z0.3 F5000.0 ; Move over to prevent blob squish
G92 E0
G92 E0
G1 F6000 E-10
;LAYER_COUNT:75
;LAYER:0
M107
G1 F300 Z0.4
G0 F6000 X85.485 Y133.969 Z0.4
;TYPE:SKIRT
G1 F300 Z0.2
G1 F6000 E0
G1 F1200 X90.329 Y131.171 E0.18606
G1 X91.242 Y130.867 E0.21806
G1 X92.436 Y130.803 E0.25783
G1 X93.349 Y131.089 E0.28965
G1 X93.497 Y131.161 E0.29513
G1 X93.939 Y131.151 E0.30983
G1 X95.407 Y131.429 E0.35953
G1 X96.61 Y132.08 E0.40502
G1 X97.497 Y132.717 E0.44134
G1 X98.284 Y133.559 E0.47968
G1 X98.832 Y134.505 E0.51604
G1 X99.865 Y133.909 E0.5557
G1 X100.73 Y133.621 E0.58603
G1 X100.923 Y133.597 E0.5925
G1 X101.054 Y133.054 E0.61107
G1 X101.547 Y132.153 E0.64523
G1 X102.236 Y131.379 E0.6797
G1 X103.771 Y130.495 E0.73862
G1 X103.99 Y130.267 E0.74913
G1 X106.178 Y128.845 E0.83592
G1 X106.374 Y128.557 E0.84751
G1 X110.155 Y125.941 E1.00043
G1 X110.35 Y125.64 E1.01236
G1 X112.05 Y124.361 E1.08312
G1 X114.134 Y122.823 E1.16926
G1 X114.319 Y122.496 E1.18176
G1 X117.809 Y119.735 E1.32977
G1 X117.986 Y119.399 E1.3424
G1 X120.813 Y117.021 E1.46527
G1 X121.565 Y116.364 E1.49848
G1 X121.735 Y116.023 E1.51116
G1 X123.888 Y114.099 E1.60719
G1 X124.991 Y113.074 E1.65727
G1 X125.177 Y112.708 E1.67093
G1 X126.895 Y111.088 E1.74947
G1 X128.286 Y109.729 E1.81415
G1 X128.457 Y109.351 E1.82794
G1 X129.725 Y108.089 E1.88745
G1 X131.57 Y106.203 E1.9752
G1 X131.734 Y105.844 E1.98833
G1 X134.599 Y102.729 E2.12909
G1 X134.778 Y102.359 E2.14276
G1 X136.032 Y100.902 E2.2067
G1 X137.741 Y98.947 E2.29306
G1 X137.913 Y98.531 E2.30804
G1 X139.192 Y96.957 E2.37549
G1 X141.098 Y94.641 E2.47525
G1 X141.241 Y94.215 E2.4902
G1 X143.705 Y91.015 E2.62453
G1 X144.777 Y89.566 E2.68448
G1 X144.88 Y89.171 E2.69805
G1 X146.375 Y87.105 E2.78287
G1 X148.09 Y84.656 E2.88231
G1 X148.242 Y84.216 E2.8978
G1 X150.621 Y80.644 E3.04054
G1 X150.767 Y80.198 E3.05615
G1 X152.692 Y77.199 E3.17468
G1 X152.791 Y76.825 E3.18754
G1 X154.641 Y73.823 E3.30483
G1 X154.755 Y73.442 E3.31806
G1 X156.235 Y70.923 E3.41523
G1 X156.362 Y70.482 E3.43049
G1 X157.539 Y68.462 E3.50825
G1 X157.658 Y68.23 E3.51692
G1 X157.754 Y67.862 E3.52957
G1 X159.038 Y65.557 E3.61733
G1 X159.132 Y65.21 E3.62929
G1 X160.223 Y63.21 E3.70506
G1 X160.339 Y62.714 E3.722
G1 X161.325 Y60.897 E3.79076
G1 X162.18 Y59.404 E3.84798
G1 X162.739 Y58.665 E3.8788
G1 X163.977 Y57.746 E3.93008
G1 X164.822 Y57.287 E3.96207
G1 X166.523 Y56.95 E4.01974
G1 X168.284 Y57.151 E4.07869
G1 X169.842 Y57.875 E4.13584
G1 X171.137 Y59.076 E4.19458
G1 X172.367 Y61.216 E4.27668
G1 X172.922 Y62.434 E4.32119
G1 X173.281 Y63.58 E4.36114
G1 X173.55 Y65.581 E4.42829
G1 X173.491 Y67.123 E4.47961
G1 X173.333 Y67.991 E4.50896
G1 X172.812 Y69.94 E4.57606
G1 X172.595 Y70.279 E4.58944
G1 X172.457 Y70.699 E4.60415
G1 X172.171 Y71.766 E4.64089
G1 X171.756 Y73.088 E4.68698
G1 X171.535 Y73.458 E4.70131
G1 X171.297 Y74.061 E4.72287
G1 X170.558 Y76.451 E4.80608
G1 X170.216 Y76.917 E4.8253
G1 X170.05 Y77.322 E4.83986
G1 X169.214 Y79.688 E4.92332
G1 X168.805 Y80.287 E4.94745
G1 X167.669 Y83.152 E5.04995
G1 X167.319 Y83.618 E5.06934
G1 X165.915 Y86.816 E5.1855
G1 X165.527 Y87.338 E5.20713
G1 X165.383 Y87.655 E5.21872
G1 X165.288 Y87.897 E5.22736
G1 X163.849 Y90.936 E5.3392
G1 X163.466 Y91.396 E5.35911
G1 X162.726 Y92.898 E5.4148
G1 X161.41 Y95.492 E5.51154
G1 X160.901 Y96.109 E5.53815
G1 X158.992 Y99.675 E5.67268
G1 X158.135 Y101.165 E5.72985
G1 X157.717 Y101.585 E5.74956
G1 X156.474 Y103.772 E5.83322
G1 X154.62 Y106.834 E5.95228
G1 X154.21 Y107.23 E5.97124
G1 X152.871 Y109.388 E6.05571
G1 X151.242 Y111.957 E6.15688
G1 X150.705 Y112.476 E6.18172
G1 X149.749 Y113.933 E6.23968
G1 X148.049 Y116.475 E6.34139
G1 X147.539 Y116.941 E6.36437
G1 X147.449 Y117.011 E6.36816
G1 X146.646 Y118.178 E6.41528
G1 X144.954 Y120.57 E6.51273
G1 X144.43 Y121.051 E6.53639
G1 X144.296 Y121.152 E6.54197
G1 X143.519 Y122.219 E6.58587
G1 X142.886 Y123.062 E6.62093
G1 X141.624 Y124.664 E6.68876
G1 X141.16 Y125.018 E6.70817
G1 X140.216 Y126.235 E6.7594
G1 X138.329 Y128.514 E6.85781
G1 X137.841 Y128.863 E6.87777
G1 X137.462 Y129.335 E6.8979
G1 X134.849 Y132.338 E7.0303
G1 X134.285 Y132.73 E7.05314
G1 X133.229 Y133.899 E7.10554
G1 X131.186 Y136.112 E7.20571
G1 X130.501 Y136.545 E7.23267
G1 X129.013 Y138.094 E7.30411
G1 X127.237 Y139.807 E7.38618
G1 X126.693 Y140.11 E7.40689
G1 X126.113 Y140.676 E7.43384
G1 X125.41 Y141.33 E7.46578
G1 X123.087 Y143.441 E7.57018
G1 X122.452 Y143.768 E7.59393
G1 X121.159 Y144.893 E7.65094
G1 X120.17 Y145.732 E7.69407
G1 X118.663 Y146.924 E7.75798
G1 X118.022 Y147.233 E7.78165
G1 X117.188 Y147.913 E7.81744
G1 X116.48 Y148.45 E7.84699
G1 X113.946 Y150.322 E7.95178
G1 X113.317 Y150.585 E7.97445
G1 X113.206 Y150.62 E7.97833
G1 X111.093 Y152.09 E8.06394
G1 X108.981 Y153.49 E8.14822
G1 X108.066 Y153.826 E8.18064
G1 X106.942 Y153.949 E8.21824
G1 X105.978 Y153.701 E8.25135
G1 X105.787 Y153.616 E8.2583
G1 X102.833 Y155.321 E8.37175
G1 X102.812 Y155.543 E8.37916
G1 X102.55 Y156.388 E8.40859
G1 X102.009 Y157.364 E8.4457
G1 X101.183 Y158.081 E8.48208
G1 X74.906 Y173.254 E9.4913
G1 X73.993 Y173.558 E9.5233
G1 X72.797 Y173.622 E9.56314
G1 X71.866 Y173.334 E9.59555
G1 X71.726 Y173.266 E9.60073
G1 X71.079 Y173.542 E9.62412
G1 X70.094 Y173.812 E9.65809
G1 X69.087 Y173.924 E9.69179
G1 X68.182 Y173.876 E9.72193
G1 X66.991 Y173.615 E9.76249
G1 X66.635 Y173.478 E9.77517
G1 X66.158 Y173.628 E9.7918
G1 X64.86 Y173.609 E9.83498
G1 X63.845 Y173.264 E9.87064
G1 X63.509 Y173.09 E9.88322
G1 X62.564 Y172.253 E9.92521
G1 X58.548 Y165.312 E10.19192
G1 X58.259 Y164.444 E10.22235
G1 X58.233 Y164.236 E10.22932
G1 X56.775 Y163.969 E10.27862
G1 X55.638 Y163.305 E10.32242
G1 X54.678 Y162.557 E10.3629
G1 X54.016 Y161.872 E10.39458
G1 X52.857 Y159.862 E10.47175
G1 X52.433 Y158.325 E10.52478
G1 X52.332 Y157.551 E10.55074
G1 X52.539 Y155.761 E10.61067
G1 X53.405 Y153.86 E10.68015
G1 X54.412 Y152.833 E10.72799
G1 X54.699 Y152.609 E10.7401
G1 X54.962 Y152.126 E10.75839
G1 X55.974 Y151.003 E10.80867
G1 X59.59 Y148.917 E10.94752
G1 X60.503 Y148.613 E10.97952
G1 X61.704 Y148.549 E11.01953
G1 X62.652 Y148.839 E11.0525
G1 X63.551 Y149.334 E11.08663
G1 X63.79 Y149.535 E11.09702
G1 X64.511 Y150.448 E11.13571
G1 X64.7 Y150.774 E11.14825
G1 X64.968 Y150.901 E11.15811
G1 X66.064 Y151.684 E11.20291
G1 X66.537 Y152.356 E11.23024
G1 X66.939 Y152.379 E11.24364
G1 X67.557 Y152.563 E11.26508
G1 X84.617 Y142.715 E11.92025
G1 X84.823 Y141.936 E11.94705
G1 X84.973 Y141.664 E11.95738
G1 X84.827 Y141.302 E11.97037
G1 X84.573 Y140.412 E12.00115
G1 X84.487 Y139.765 E12.02286
G1 X84.539 Y139.346 E12.0369
G1 X84.144 Y138.654 E12.0634
G1 X83.879 Y137.722 E12.09563
G1 X83.833 Y136.596 E12.13311
G1 X84.154 Y135.62 E12.16729
G1 X84.694 Y134.658 E12.20398
G1 X85.485 Y133.969 E12.23887
G0 F6000 X85.722 Y134.294
G1 F1200 X90.491 Y131.539 E12.42205
G1 X91.32 Y131.263 E12.45111
G1 X92.385 Y131.206 E12.48658
G1 X93.174 Y131.449 E12.51404
G1 X93.409 Y131.563 E12.52273
G1 X93.907 Y131.552 E12.5393
G1 X95.271 Y131.81 E12.58547
G1 X96.42 Y132.432 E12.62892
G1 X97.232 Y133.018 E12.66223
G1 X97.961 Y133.799 E12.69776
G1 X98.686 Y135.051 E12.74588
G1 X100.027 Y134.277 E12.79738
G1 X100.856 Y134.001 E12.82644
G1 X101.281 Y133.978 E12.8406
G1 X101.309 Y133.704 E12.84976
G1 X101.43 Y133.2 E12.867
G1 X101.876 Y132.385 E12.8979
G1 X102.491 Y131.694 E12.92867
G1 X104.017 Y130.815 E12.98724
G1 X104.246 Y130.577 E12.99822
G1 X106.464 Y129.136 E13.0862
G1 X106.663 Y128.844 E13.09795
G1 X110.447 Y126.226 E13.25099
G1 X110.647 Y125.917 E13.26324
G1 X112.288 Y124.683 E13.33152
G1 X114.439 Y123.095 E13.42045
G1 X114.628 Y122.761 E13.43322
G1 X118.124 Y119.996 E13.58147
G1 X118.304 Y119.655 E13.59429
G1 X121.071 Y117.327 E13.71456
G1 X121.888 Y116.612 E13.75067
G1 X122.059 Y116.27 E13.76339
G1 X124.155 Y114.397 E13.85688
G1 X125.316 Y113.318 E13.9096
G1 X125.503 Y112.95 E13.92333
G1 X127.175 Y111.374 E13.99975
G1 X128.618 Y109.964 E14.06685
G1 X128.79 Y109.584 E14.08072
G1 X130.007 Y108.373 E14.13783
G1 X131.905 Y106.433 E14.2281
G1 X132.072 Y106.068 E14.24145
G1 X134.933 Y102.956 E14.38205
G1 X135.115 Y102.58 E14.39594
G1 X136.333 Y101.165 E14.45804
G1 X138.087 Y99.159 E14.54666
G1 X138.261 Y98.738 E14.56182
G1 X139.501 Y97.211 E14.62724
G1 X141.453 Y94.839 E14.72941
G1 X141.598 Y94.407 E14.74457
G1 X144.027 Y91.253 E14.87698
G1 X145.144 Y89.743 E14.93945
G1 X145.248 Y89.345 E14.95313
G1 X146.699 Y87.34 E15.03545
G1 X148.45 Y84.839 E15.13699
G1 X148.603 Y84.396 E15.15258
G1 X150.983 Y80.822 E15.29539
G1 X151.13 Y80.373 E15.31111
G1 X153.063 Y77.362 E15.43012
G1 X153.163 Y76.982 E15.44318
G1 X155.009 Y73.988 E15.56017
G1 X155.123 Y73.605 E15.57346
G1 X156.604 Y71.085 E15.67068
G1 X156.731 Y70.643 E15.68598
G1 X157.885 Y68.663 E15.7622
G1 X158.034 Y68.372 E15.77308
G1 X158.129 Y68.011 E15.78549
G1 X159.411 Y65.709 E15.87313
G1 X159.505 Y65.361 E15.88512
G1 X160.599 Y63.356 E15.96109
G1 X160.715 Y62.861 E15.978
G1 X161.672 Y61.096 E16.04477
G1 X162.527 Y59.603 E16.102
G1 X163.023 Y58.952 E16.12922
G1 X164.215 Y58.067 E16.1786
G1 X164.959 Y57.667 E16.20669
G1 X166.54 Y57.354 E16.2603
G1 X168.172 Y57.54 E16.31493
G1 X169.618 Y58.212 E16.36796
G1 X170.82 Y59.327 E16.42249
G1 X172.003 Y61.383 E16.50139
G1 X172.54 Y62.554 E16.54424
G1 X172.899 Y63.7 E16.58418
G1 X173.15 Y65.567 E16.64683
G1 X173.097 Y67.051 E16.69622
G1 X172.939 Y67.919 E16.72557
G1 X172.442 Y69.776 E16.7895
G1 X172.231 Y70.106 E16.80253
G1 X172.074 Y70.586 E16.81933
G1 X171.789 Y71.646 E16.85584
G1 X171.388 Y72.924 E16.90039
G1 X171.176 Y73.278 E16.91411
G1 X170.919 Y73.931 E16.93745
G1 X170.196 Y76.269 E17.01885
G1 X169.864 Y76.721 E17.0375
G1 X169.68 Y77.17 E17.05364
G1 X168.854 Y79.507 E17.13608
G1 X168.476 Y80.061 E17.15839
G1 X168.369 Y80.302 E17.16716
G1 X167.317 Y82.955 E17.26208
G1 X166.972 Y83.414 E17.28118
G1 X165.568 Y86.612 E17.39734
G1 X165.181 Y87.133 E17.41893
G1 X165.013 Y87.502 E17.43242
G1 X164.926 Y87.726 E17.44041
G1 X163.509 Y90.718 E17.55052
G1 X163.128 Y91.176 E17.57033
G1 X162.369 Y92.717 E17.62747
G1 X161.073 Y95.272 E17.72275
G1 X160.637 Y95.807 E17.74571
G1 X160.573 Y95.873 E17.74877
G1 X158.645 Y99.476 E17.88468
G1 X157.815 Y100.919 E17.94005
G1 X157.395 Y101.341 E17.95985
G1 X156.132 Y103.565 E18.04492
G1 X154.306 Y106.581 E18.16218
G1 X153.897 Y106.976 E18.18109
G1 X152.533 Y109.174 E18.26713
G1 X150.93 Y111.702 E18.36669
G1 X150.395 Y112.219 E18.39144
G1 X149.417 Y113.711 E18.45077
G1 X147.745 Y116.211 E18.55081
G1 X147.269 Y116.646 E18.57225
G1 X147.156 Y116.732 E18.57698
G1 X146.319 Y117.947 E18.62605
G1 X144.652 Y120.303 E18.72204
G1 X144.159 Y120.756 E18.74431
G1 X144.01 Y120.866 E18.75047
G1 X143.199 Y121.979 E18.79627
G1 X142.572 Y122.814 E18.831
G1 X141.34 Y124.378 E18.89722
G1 X140.875 Y124.732 E18.91666
G1 X139.908 Y125.98 E18.96917
G1 X138.054 Y128.219 E19.06586
G1 X137.565 Y128.569 E19.08586
G1 X137.158 Y129.074 E19.10743
G1 X136.534 Y129.801 E19.1393
G1 X134.582 Y132.036 E19.23799
G1 X134.114 Y132.366 E19.25704
G1 X134.028 Y132.417 E19.26036
G1 X132.935 Y133.628 E19.31462
G1 X130.928 Y135.802 E19.41303
G1 X130.333 Y136.181 E19.43649
G1 X130.258 Y136.22 E19.43931
G1 X128.735 Y137.806 E19.51244
G1 X126.995 Y139.484 E19.59284
G1 X126.45 Y139.788 E19.61359
G1 X125.841 Y140.383 E19.64191
G1 X125.141 Y141.034 E19.67371
G1 X122.858 Y143.109 E19.77632
G1 X122.228 Y143.433 E19.79988
G1 X120.9 Y144.588 E19.85842
G1 X119.922 Y145.418 E19.90108
G1 X118.448 Y146.584 E19.96359
G1 X117.805 Y146.894 E19.98733
G1 X116.946 Y147.594 E20.02419
G1 X116.242 Y148.128 E20.05358
G1 X113.746 Y149.972 E20.15679
G1 X113.197 Y150.203 E20.1766
G1 X113.031 Y150.255 E20.18239
G1 X110.872 Y151.757 E20.26987
G1 X108.799 Y153.131 E20.35258
G1 X107.977 Y153.433 E20.38171
G1 X106.969 Y153.543 E20.41544
G1 X106.077 Y153.314 E20.44607
G1 X105.772 Y153.163 E20.45739
G1 X102.439 Y155.087 E20.58539
G1 X102.43 Y155.424 E20.5966
G1 X102.18 Y156.23 E20.62467
G1 X101.693 Y157.109 E20.65809
G1 X100.949 Y157.755 E20.69086
G1 X74.744 Y172.886 E21.6973
G1 X73.915 Y173.162 E21.72636
G1 X72.848 Y173.219 E21.7619
G1 X71.984 Y172.952 E21.79198
G1 X71.748 Y172.821 E21.80096
G1 X70.973 Y173.156 E21.82904
G1 X69.988 Y173.426 E21.86301
G1 X69.045 Y173.526 E21.89455
G1 X68.266 Y173.485 E21.92049
G1 X67.135 Y173.242 E21.95897
G1 X66.647 Y173.054 E21.97636
G1 X66.098 Y173.227 E21.99551
G1 X64.93 Y173.21 E22.03436
G1 X63.974 Y172.885 E22.06794
G1 X63.738 Y172.758 E22.07686
G1 X62.876 Y171.995 E22.11515
G1 X58.914 Y165.146 E22.37831
G1 X58.638 Y164.318 E22.40734
G1 X58.615 Y163.9 E22.42127
G1 X56.918 Y163.589 E22.47865
G1 X55.883 Y162.989 E22.51844
G1 X54.966 Y162.279 E22.55701
G1 X54.339 Y161.63 E22.58703
G1 X53.228 Y159.703 E22.66101
G1 X52.83 Y158.273 E22.71038
G1 X52.735 Y157.545 E22.7348
G1 X52.929 Y155.871 E22.79085
G1 X53.741 Y154.088 E22.85601
G1 X54.658 Y153.148 E22.89969
G1 X55.011 Y152.872 E22.91459
G1 X55.291 Y152.359 E22.93403
G1 X56.23 Y151.317 E22.98068
G1 X59.752 Y149.285 E23.11592
G1 X60.581 Y149.009 E23.14498
G1 X61.655 Y148.952 E23.18076
G1 X62.495 Y149.209 E23.20997
G1 X63.358 Y149.684 E23.24274
G1 X63.477 Y149.784 E23.24791
G1 X64.165 Y150.649 E23.28467
G1 X64.419 Y151.087 E23.30151
G1 X64.735 Y151.226 E23.31299
G1 X65.776 Y151.97 E23.35555
G1 X66.321 Y152.744 E23.38703
G1 X66.87 Y152.775 E23.40532
G1 X67.608 Y152.995 E23.43093
G1 X84.962 Y142.977 E24.0974
G1 X85.197 Y142.086 E24.12805
G1 X85.417 Y141.689 E24.14315
G1 X85.212 Y141.192 E24.16103
G1 X84.958 Y140.302 E24.19181
G1 X84.89 Y139.763 E24.20988
G1 X84.952 Y139.264 E24.2266
G1 X84.517 Y138.501 E24.25582
G1 X84.277 Y137.658 E24.28497
G1 X84.236 Y136.651 E24.31849
G1 X84.521 Y135.783 E24.34888
G1 X85.009 Y134.915 E24.38199
G1 X85.722 Y134.294 E24.41344
G0 F6000 X85.959 Y134.619
G1 F1200 X90.653 Y131.907 E24.59375
G1 X91.398 Y131.659 E24.61987
G1 X92.335 Y131.609 E24.65108
G1 X93.056 Y131.831 E24.67617
G1 X93.316 Y131.965 E24.6859
G1 X93.875 Y131.953 E24.70449
G1 X95.137 Y132.192 E24.74721
G1 X96.186 Y132.756 E24.78683
G1 X96.966 Y133.319 E24.81882
G1 X97.638 Y134.039 E24.85158
G1 X98.54 Y135.597 E24.91145
G1 X100.189 Y134.645 E24.97478
G1 X100.934 Y134.397 E25.0009
G1 X101.652 Y134.359 E25.02481
G1 X101.698 Y133.798 E25.04354
G1 X101.807 Y133.345 E25.05903
G1 X102.205 Y132.617 E25.08663
G1 X102.746 Y132.009 E25.1137
G1 X104.265 Y131.134 E25.172
G1 X104.504 Y130.886 E25.18346
G1 X106.748 Y129.428 E25.27246
G1 X106.95 Y129.132 E25.28438
G1 X110.74 Y126.51 E25.43766
G1 X110.944 Y126.194 E25.45017
G1 X112.526 Y125.005 E25.516
G1 X114.744 Y123.367 E25.6077
G1 X114.937 Y123.026 E25.62074
G1 X118.439 Y120.257 E25.76922
G1 X118.622 Y119.911 E25.78224
G1 X121.329 Y117.633 E25.89992
G1 X122.211 Y116.861 E25.9389
G1 X122.382 Y116.518 E25.95165
G1 X124.422 Y114.695 E26.04264
G1 X125.641 Y113.562 E26.098
G1 X125.828 Y113.194 E26.11173
G1 X127.449 Y111.664 E26.18586
G1 X128.951 Y110.197 E26.25569
G1 X129.123 Y109.817 E26.26957
G1 X130.289 Y108.657 E26.32427
G1 X132.24 Y106.663 E26.41706
G1 X132.41 Y106.291 E26.43066
G1 X135.267 Y103.183 E26.57107
G1 X135.452 Y102.801 E26.58519
G1 X136.634 Y101.428 E26.64545
G1 X138.433 Y99.371 E26.73634
G1 X138.61 Y98.942 E26.75177
G1 X139.81 Y97.465 E26.81507
G1 X141.66 Y95.217 E26.9119
G1 X141.822 Y94.996 E26.92101
G1 X141.956 Y94.598 E26.93498
G1 X144.349 Y91.491 E27.06542
G1 X145.511 Y89.92 E27.13041
G1 X145.617 Y89.517 E27.14427
